X:87
M:4/4
L:1/4
K:Eb
E2 B B | G F G =A | B3/2 B/ G B | A B G F | E3/2 B/ c c | G B A A | G3/2 !sintro!_e/ d c | B c A/G/ F | E4 !eintro!|]
